svg/UnitedNations-Flags/flag-ai.svg

<svg enable-background="new 0 0 1000 500" height="256" viewBox="0 0 1000 500" width="256" xmlns="http://www.w3.org/2000/svg"><path fill="#08296b" d="m0 0h1000v500h-1000z"/><path fill="#fff" d="m500 0h-55.9l-152.43 76.22v-76.22h-83.34v76.22l-152.43-76.22h-55.902v27.949l110.77 55.38h-110.77v83.34h110.77l-110.77 55.38v27.95h55.902l152.43-76.22v76.22h83.34v-76.22l152.43 76.22h55.9v-27.95l-110.77-55.38h110.77v-83.34h-110.77l110.77-55.38v-27.949"/><g fill="#cf142b"><path d="m500 0h-37.27l-166.67 83.33h37.27l166.67-83.33"/><path d="m166.67 83.33l-166.67-83.33v18.633l129.4 64.7h37.27"/><path d="m0 250h37.27l166.66-83.33h-37.26l-166.67 83.33"/><path d="m333.33 166.67l166.67 83.33v-18.63l-129.4-64.7h-37.27"/><path d="m225 0h50v100h225v50h-225v100h-50v-100h-225v-50h225v-100"/></g><path d="m750 114.38c-38.643 22.22-80.3 21.495-106.38 3.619 0 67.63 0 112.07 0 138.16 0 47.827 29.1 101.45 106.38 129.47 77.28-28.02 106.38-81.64 106.38-129.47 0-26.09 0-70.53 0-138.16-26.08 17.876-67.739 18.598-106.38-3.619" fill="#fff"/><path d="m652.88 302.11c13.86 33.12 44.19 64.32 97.12 83.51 52.933-19.19 83.26-50.39 97.12-83.51h-194.24" fill="#0073bd"/><g fill="#e77329"><path d="m819.92 178.02c-12.438-11.473-27.05-6.279-38.644-16.303-9.984-8.638-24.631-12.08-35.744-11.11.728-1.448 1.692-3.138 2.417-4.586-52.65 12.559-58.44 82.12-10.385 90.09.603-7.368-5.314-11.837-5.557-19.08 2.295.481 4.952 1.451 6.764 2.66-.724-8.215-7.966-9.896-7.729-20.05.482-20.531 10.906-33.26 29.706-34.782 8.938-.724 21.1 2.828 24.878 10.388 1.447 2.9 4.344 6.883 6.517 9.06 2.056 2.056 2.114 1.331 2.419-1.569.637-6.124 11.557-8.859 24.392-2.896 3.379 1.567 3.487.513.966-1.814"/><path d="m773.79 216.54c-3.861 2.295-8.815 10.989-16.664 11.836.121-2.896 0-7.609-.481-9.417-4.469 6.883-5.559 15.697-16.908 23.427-12.74 8.676-35.35 11.454-46.852-.966-6.04-6.521-9.904-15.216-6.525-27.539 2.261-8.209 9.302-8.64 13.165-12.07 1.087-.963.111-1.129-1.568-1.328-7.127-.845-9.201-10.727-3.141-25.601 1.328-3.263-.482-3.142-4.345 3.744-5.504 9.799-5.438 19.04-8.456 27.29-7.246 19.806-3.441 47.522 14.913 57.43-.905 1.33-1.991 3.08-3.141 4.408 41.603 9.902 83.14-7.486 80-51.21"/><path d="m762.2 185.15c2.414 4.83 9.419 8.212 11.591 14.732-1.931 0-5.557.968-7.487 2.175 5.193 2.416 7.971 2.78 12.798 6.644l1.207.604c15.456 16.421 22.18 32.696 16.426 47.34-2.896 7.368-8.927 15.604-18.718 18.719-13.283 4.228-16.906-6.643-28.86-4.709-.842.136-.188.825.966 1.33 7.489 3.259 4.887 11.57-9.297 17.872-1.088.481-1.163.574 1.236.847 8.542.966 19.351-1.828 24.966-4.832 7-3.745 15.604-6.267 23.07-9.783 14.61-6.882 22.578-19.08 24.875-35.989 2.777 2.055 3.621 3.865 4.95 6.161 6.04-27.29-13.04-62.32-57.72-61.11"/></g><g fill="#fff"><circle cx="719.93" cy="215.82" r="2.468"/><path d="m766.06 231.23c-1.357 0-2.463 1.105-2.463 2.466 0 1.365 1.105 2.472 2.463 2.472 1.364 0 2.468-1.106 2.468-2.472-.0001-1.361-1.104-2.466-2.468-2.466"/><path d="m785.38 190.79c-1.363 0-2.471 1.101-2.471 2.466 0 1.364 1.107 2.468 2.471 2.468 1.361 0 2.465-1.104 2.465-2.468 0-1.365-1.104-2.466-2.465-2.466"/></g></svg>

<?xml version="1.0" encoding="UTF-8" standalone="no"?>
<!-- Generator: Adobe Illustrator 13.0.0, SVG Export Plug-In  --><svg enable-background="new 0 0 1000 500" height="256" id="svg2404" inkscape:output_extension="org.inkscape.output.svg.inkscape" inkscape:version="0.46" sodipodi:docname="Flag_of_Anguilla.svg" sodipodi:version="0.32" space="preserve" version="1.0" viewBox="0 0 1000 500" width="256" x="0px" xmlns="http://www.w3.org/2000/svg" xmlns:cc="http://creativecommons.org/ns#" xmlns:dc="http://purl.org/dc/elements/1.1/" xmlns:inkscape="http://www.inkscape.org/namespaces/inkscape" xmlns:rdf="http://www.w3.org/1999/02/22-rdf-syntax-ns#" xmlns:sodipodi="http://sodipodi.sourceforge.net/DTD/sodipodi-0.dtd" xmlns:svg="http://www.w3.org/2000/svg" y="0px">
  <metadata>
    <rdf:RDF xmlns:cc="http://web.resource.org/cc/" xmlns:dc="http://purl.org/dc/elements/1.1/" xmlns:rdf="http://www.w3.org/1999/02/22-rdf-syntax-ns#">
      <cc:Work rdf:about="">
        <dc:title></dc:title>
        <dc:description></dc:description>
        <dc:subject>
          <rdf:Bag>
            <rdf:li>unsorted</rdf:li>
          </rdf:Bag>
        </dc:subject>
        <dc:publisher>
          <cc:Agent rdf:about="http://www.openclipart.org/">
            <dc:title>Open Clip Art Library, Source: Wikimedia Commons, Source: Wikimedia Commons, Source: Wikimedia Commons, Source: Wikimedia Commons</dc:title>
          </cc:Agent>
        </dc:publisher>
        <dc:creator>
          <cc:Agent>
            <dc:title></dc:title>
          </cc:Agent>
        </dc:creator>
        <dc:rights>
          <cc:Agent>
            <dc:title></dc:title>
          </cc:Agent>
        </dc:rights>
        <dc:date></dc:date>
        <dc:format>image/svg+xml</dc:format>
        <dc:type rdf:resource="http://purl.org/dc/dcmitype/StillImage"/>
        <cc:license rdf:resource="http://en.wikipedia.org/wiki/Public_domain"/>
        <dc:language>en</dc:language>
      </cc:Work>
    </rdf:RDF>
  </metadata>
  <sodipodi:namedview bordercolor="#666666" borderopacity="1.0" gridtolerance="10.0" guidetolerance="10.0" id="base" inkscape:current-layer="svg2404" inkscape:cx="500" inkscape:cy="250" inkscape:pageopacity="0.0" inkscape:pageshadow="2" inkscape:window-height="674" inkscape:window-width="640" inkscape:window-x="58" inkscape:window-y="197" inkscape:zoom="0.559" objecttolerance="10.0" pagecolor="#ffffff" showgrid="false"/>
  <defs id="defs2406">
    <inkscape:perspective id="perspective2440" inkscape:persp3d-origin="500 : 166.66667 : 1" inkscape:vp_x="0 : 250 : 1" inkscape:vp_y="0 : 1000 : 0" inkscape:vp_z="1000 : 250 : 1" sodipodi:type="inkscape:persp3d"/>
  </defs>
  <rect height="500" id="rect2408" style="fill:#08296b" width="1000" x="0" y="0"/>
  <polygon id="polygon2410" points="499.999,0 444.098,0 291.667,76.215 291.667,0 208.333,0 208.333,76.215 55.902,0 0,0 0,27.949 110.765,83.332 0,83.332 0,166.666 110.765,166.666 0,222.049 0,250 55.902,250 208.333,173.783 208.333,250 291.667,250 291.667,173.783 444.098,250 499.999,250 499.999,222.049 389.234,166.666 499.999,166.666 499.999,83.332 389.234,83.332 499.999,27.949 499.999,0 " style="fill:#ffffff"/>
  <polygon id="polygon2412" points="499.999,0 462.731,0 296.065,83.332 333.333,83.332 499.999,0 " style="fill:#cf142b"/>
  <polygon id="polygon2414" points="166.667,83.332 0,0 0,18.633 129.399,83.332 166.667,83.332 " style="fill:#cf142b"/>
  <polygon id="polygon2416" points="0,250 37.268,250 203.934,166.666 166.667,166.666 0,250 " style="fill:#cf142b"/>
  <polygon id="polygon2418" points="333.333,166.666 499.999,250 499.999,231.365 370.601,166.666 333.333,166.666 " style="fill:#cf142b"/>
  <path d="M 225,0 L 275,0 L 275,100 L 500,100 L 500,150 L 275,150 L 275,250 L 225,250 L 225,150 L 0,150 L 0,100 L 225,100 L 225,0 z" id="path2938_1_" style="fill:#cf142b"/>
  <path d="M 750,114.377 C 711.357,136.594 669.698,135.872 643.615,117.996 C 643.615,185.63 643.615,230.07 643.615,256.157 C 643.615,303.984 672.717,357.603 750,385.623 C 827.281,357.603 856.385,303.984 856.385,256.157 C 856.385,230.07 856.385,185.63 856.385,117.996 C 830.302,135.872 788.646,136.594 750,114.377 z" id="path2421" style="fill:#ffffff"/>
  <path d="M 652.882,302.114 C 666.742,335.234 697.072,366.432 750,385.623 C 802.933,366.433 833.258,335.234 847.121,302.114 L 652.882,302.114 z" id="path2423" style="fill:#0073bd"/>
  <path d="M 819.918,178.021 C 807.48,166.548 792.87,171.742 781.274,161.718 C 771.29,153.08 756.643,149.639 745.53,150.605 C 746.258,149.157 747.222,147.467 747.947,146.019 C 695.297,158.578 689.504,228.14 737.562,236.112 C 738.165,228.744 732.248,224.275 732.005,217.029 C 734.3,217.51 736.957,218.48 738.769,219.689 C 738.045,211.474 730.803,209.793 731.04,199.639 C 731.522,179.108 741.946,166.383 760.746,164.857 C 769.684,164.133 781.841,167.685 785.624,175.245 C 787.071,178.145 789.968,182.128 792.141,184.3 C 794.197,186.356 794.255,185.631 794.56,182.731 C 795.197,176.607 806.117,173.872 818.952,179.835 C 822.331,181.402 822.439,180.348 819.918,178.021 z" id="path2425" style="fill:#e77329"/>
  <path d="M 773.789,216.545 C 769.928,218.84 764.974,227.534 757.125,228.381 C 757.246,225.485 757.125,220.772 756.644,218.964 C 752.175,225.847 751.085,234.661 739.736,242.391 C 726.996,251.067 704.385,253.845 692.884,241.425 C 686.844,234.904 682.98,226.209 686.359,213.886 C 688.62,205.677 695.661,205.246 699.524,201.811 C 700.611,200.848 699.635,200.682 697.956,200.483 C 690.829,199.638 688.755,189.756 694.815,174.882 C 696.143,171.619 694.333,171.74 690.47,178.626 C 684.966,188.425 685.032,197.664 682.014,205.918 C 674.768,225.724 678.573,253.44 696.927,263.343 C 696.022,264.673 694.936,266.423 693.786,267.751 C 735.389,277.653 776.928,260.265 773.789,216.545 z" id="path2427" style="fill:#e77329"/>
  <path d="M 762.198,185.147 C 764.612,189.977 771.617,193.359 773.789,199.879 C 771.858,199.879 768.232,200.847 766.302,202.054 C 771.495,204.47 774.273,204.834 779.1,208.698 L 780.307,209.302 C 795.763,225.723 802.492,241.998 796.733,256.64 C 793.837,264.008 787.806,272.244 778.015,275.359 C 764.732,279.587 761.109,268.716 749.155,270.65 C 748.313,270.786 748.967,271.475 750.121,271.98 C 757.61,275.239 755.008,283.55 740.824,289.852 C 739.736,290.333 739.661,290.426 742.06,290.699 C 750.602,291.665 761.411,288.871 767.026,285.867 C 774.031,282.122 782.63,279.6 790.093,276.084 C 804.703,269.202 812.671,257.004 814.968,240.095 C 817.745,242.15 818.589,243.96 819.918,246.256 C 825.956,218.963 806.875,183.937 762.198,185.147 z" id="path2429" style="fill:#e77329"/>
  <circle cx="719.93298" cy="215.819" id="circle2431" r="2.4679999" sodipodi:cx="719.93298" sodipodi:cy="215.819" sodipodi:rx="2.4679999" sodipodi:ry="2.4679999" style="fill:#ffffff"/>
  <path d="M 766.059,231.226 C 764.702,231.226 763.596,232.331 763.596,233.692 C 763.596,235.057 764.701,236.164 766.059,236.164 C 767.423,236.164 768.527,235.058 768.527,233.692 C 768.526,232.331 767.423,231.226 766.059,231.226 z" id="path2433" style="fill:#ffffff"/>
  <path d="M 785.383,190.788 C 784.02,190.788 782.912,191.889 782.912,193.254 C 782.912,194.618 784.019,195.722 785.383,195.722 C 786.744,195.722 787.848,194.618 787.848,193.254 C 787.848,191.889 786.744,190.788 785.383,190.788 z" id="path2435" style="fill:#ffffff"/>
</svg>
